src/actions/16/insertcellcopy.svg

<svg xmlns="http://www.w3.org/2000/svg" viewBox="0 0 16 16">
    <path d="M2 2v12h7v-1H7v-2H6v2H3v-3h2V9H3V7h2V6H3V3h3v2h1V3h2v2h1V3h3v3h-2v1h2v1h1V2H2zm5 4L5 8l2 2V6zm2 0v3h1l1-1-2-2zm2 3v1h-1v4h4v-4h-1V9h-2zm0 2h2v2h-2v-2z" style="fill:currentColor;fill-opacity:1;stroke:none;color:#050505;opacity:.7"/>
</svg>

<svg xmlns="http://www.w3.org/2000/svg" viewBox="0 0 16 16">
  <defs id="defs3051">
    <style type="text/css" id="current-color-scheme">
      .ColorScheme-Text {
        color:#363636;
      }
      </style>
  </defs>
 <path style="fill:currentColor;fill-opacity:1;stroke:none" 
     d="M 2 2 L 2 14 L 3 14 L 9 14 L 9 13 L 7 13 L 7 11 L 6 11 L 6 13 L 3 13 L 3 10 L 5 10 L 5 9 L 3 9 L 3 7 L 5 7 L 5 6 L 3 6 L 3 5 L 3 3 L 6 3 L 6 5 L 7 5 L 7 3 L 9 3 L 9 5 L 10 5 L 10 3 L 11 3 L 12 3 L 13 3 L 13 5 L 13 6 L 11.65625 6 L 11 6 L 11 7 L 11.65625 7 L 13 7 L 13 8 L 14 8 L 14 2 L 2 2 z M 7 6 L 5 8 L 7 10 L 7 6 z M 9 6 L 9 9 L 10 9 L 11 8 L 9 6 z M 11 9 L 11 10 L 10 10 L 10 14 L 14 14 L 14 10 L 13 10 L 13 9 L 11 9 z M 11 11 L 13 11 L 13 13 L 11 13 L 11 11 z "
     class="ColorScheme-Text"
     />
</svg>
